Sources/FrostedUI/Resources/Icons.xcassets/flag24.imageset/flag-24.svg

<svg width="24" height="24" viewBox="0 0 24 24" fill="none" xmlns="http://www.w3.org/2000/svg" data-fui-icon="true">
  <path
    d="M8.89258 2C10.1336 2 11.3387 2.61321 12.333 3.10547C13.4146 3.64096 14.2861 4.05566 15.1074 4.05566C15.9471 4.05561 16.8149 3.86244 17.5273 3.64062C18.6481 3.29171 19.9997 4.06926 20 5.38672V14.4619C20 15.122 19.6219 15.7622 18.96 16.0273C18.1731 16.3427 16.655 16.8613 15.1074 16.8613C13.8664 16.8613 12.6613 16.2481 11.667 15.7559C10.5854 15.2204 9.71399 14.8057 8.89258 14.8057C7.97424 14.8057 7.02431 15.0365 6.2832 15.2812C5.97109 15.3843 5.70361 15.4884 5.5 15.5723V21.25C5.5 21.6642 5.16421 22 4.75 22C4.33579 22 4 21.6642 4 21.25V4.39941C4 3.7393 4.37818 3.09922 5.04004 2.83398C5.82684 2.5187 7.34494 2.00006 8.89258 2ZM8.89258 3.5C7.63376 3.50006 6.32865 3.93363 5.59766 4.22656C5.5532 4.24454 5.5 4.29877 5.5 4.39941V13.9678C5.59924 13.9322 5.70302 13.8936 5.8125 13.8574C6.62707 13.5884 7.74873 13.3057 8.89258 13.3057C10.1336 13.3057 11.3387 13.9189 12.333 14.4111C13.4146 14.9466 14.2861 15.3613 15.1074 15.3613C16.3663 15.3613 17.6715 14.9277 18.4023 14.6348C18.4468 14.6169 18.5 14.5627 18.5 14.4619V5.38672C18.4999 5.30076 18.4564 5.20752 18.3467 5.13379C18.2329 5.05742 18.0919 5.03513 17.9727 5.07227C17.1844 5.31765 16.1562 5.55562 15.1074 5.55566C13.8664 5.55566 12.6613 4.94245 11.667 4.4502C10.5854 3.91469 9.71397 3.5 8.89258 3.5Z"
    fill="currentColor"
  />
</svg>

<svg xmlns="http://www.w3.org/2000/svg" width="24" height="24" fill="none" data-fui-icon="true" viewBox="0 0 24 24"><path fill="currentColor" d="M8.893 2c1.24 0 2.446.613 3.44 1.105 1.082.536 1.953.95 2.774.95.84 0 1.708-.193 2.42-.414C18.648 3.29 20 4.069 20 5.387v9.075c0 .66-.378 1.3-1.04 1.565-.787.316-2.305.834-3.853.834-1.24 0-2.446-.613-3.44-1.105-1.082-.536-1.953-.95-2.774-.95-.919 0-1.869.23-2.61.475-.312.103-.58.207-.783.291v5.678a.75.75 0 0 1-1.5 0V4.4c0-.66.378-1.3 1.04-1.566C5.827 2.519 7.345 2 8.893 2m0 1.5c-1.26 0-2.564.434-3.295.727-.045.018-.098.072-.098.172v9.569q.149-.055.313-.11c.814-.27 1.936-.552 3.08-.552 1.24 0 2.446.613 3.44 1.105 1.082.536 1.953.95 2.774.95 1.26 0 2.565-.433 3.295-.726.045-.018.098-.072.098-.173V5.387c0-.086-.044-.18-.153-.253a.45.45 0 0 0-.374-.062c-.789.246-1.817.484-2.866.484-1.24 0-2.446-.614-3.44-1.106-1.082-.535-1.953-.95-2.774-.95"/></svg>
